_includes/icons/ios-storage-box.svg

<svg fill="#666" height="50" viewBox="0 0 50 50" width="50" xmlns="http://www.w3.org/2000/svg"><path d="m18 4c-.523437 0-1.058594.183594-1.4375.5625s-.5625.914063-.5625 1.4375v2h-13c-1.644531 0-3 1.355469-3 3v1.46875c-.203125.324219-.203125.738281 0 1.0625v26.46875c0 1.644531 1.355469 3 3 3h41c1.644531 0 3-1.355469 3-3v-13.15625c1.722656-.445312 3-1.980469 3-3.84375v-6c0-1.863281-1.277344-3.398437-3-3.84375v-2.15625c0-1.644531-1.355469-3-3-3h-12v-2c0-.523437-.183594-1.058594-.5625-1.4375s-.914062-.5625-1.4375-.5625zm0 2h12v2h-12zm-15 4h41c.554688 0 1 .445313 1 1v2.6875c-.058594.195313-.058594.398438 0 .59375v3.5625l-43-5.71875v-1.125c0-.554687.445313-1 1-1zm-1 4.15625 43 5.71875v5.9375c-.027344.132813-.027344.273438 0 .40625v13.78125c0 .554688-.445312 1-1 1h-41c-.554687 0-1-.445312-1-1zm45 1.09375c.613281.320313 1 .941406 1 1.75v6c0 .808594-.386719 1.429688-1 1.75v-5.5625c.027344-.132812.027344-.273437 0-.40625z"/></svg>

<svg xmlns="http://www.w3.org/2000/svg" viewBox="0 0 50 50" width="50" height="50" fill="#666"><path d="M 18 4 C 17.476563 4 16.941406 4.183594 16.5625 4.5625 C 16.183594 4.941406 16 5.476563 16 6 L 16 8 L 3 8 C 1.355469 8 0 9.355469 0 11 L 0 12.46875 C -0.203125 12.792969 -0.203125 13.207031 0 13.53125 L 0 40 C 0 41.644531 1.355469 43 3 43 L 44 43 C 45.644531 43 47 41.644531 47 40 L 47 26.84375 C 48.722656 26.398438 50 24.863281 50 23 L 50 17 C 50 15.136719 48.722656 13.601563 47 13.15625 L 47 11 C 47 9.355469 45.644531 8 44 8 L 32 8 L 32 6 C 32 5.476563 31.816406 4.941406 31.4375 4.5625 C 31.058594 4.183594 30.523438 4 30 4 Z M 18 6 L 30 6 L 30 8 L 18 8 Z M 3 10 L 44 10 C 44.554688 10 45 10.445313 45 11 L 45 13.6875 C 44.941406 13.882813 44.941406 14.085938 45 14.28125 L 45 17.84375 L 2 12.125 L 2 11 C 2 10.445313 2.445313 10 3 10 Z M 2 14.15625 L 45 19.875 L 45 25.8125 C 44.972656 25.945313 44.972656 26.085938 45 26.21875 L 45 40 C 45 40.554688 44.554688 41 44 41 L 3 41 C 2.445313 41 2 40.554688 2 40 Z M 47 15.25 C 47.613281 15.570313 48 16.191406 48 17 L 48 23 C 48 23.808594 47.613281 24.429688 47 24.75 L 47 19.1875 C 47.027344 19.054688 47.027344 18.914063 47 18.78125 Z"/></svg>
